!!!COM:	Rachmaninoff, Sergei
!!!CDT:	1873/04/01–1943/03/28
!!!OTL@RU:	Voskreseniye Khristovo videvshe
!!!OTL@EN:	Having Beheld the Resurrection of Christ
!!!OPS:	Op. 37
!!!ONM:	No. 10
!!!CNT:	N/A
**kern	**kern	**kern	**kern	**kern	**kern	**kern	**kern
*part8	*part7	*part6	*part5	*part4	*part3	*part2	*part1
*staff8	*staff7	*staff6	*staff5	*staff4	*staff3	*staff2	*staff1
*I"Bass 2	*I"Bass 1	*I"Tenor 2	*I"Tenor 1	*I"Alto 2	*I"Alto 1	*I"Soprano 2	*I"Soprano 1
*I'B 2	*I'B 1	*I'T 2	*I'T 1	*I'A 2	*I'A 1	*I'S 2	*I'S 1
*clefF4	*clefF4	*clefGv2	*clefGv2	*clefG2	*clefG2	*clefG2	*clefG2
*k[b-]	*k[b-]	*k[b-]	*k[b-]	*k[b-]	*k[b-]	*k[b-]	*k[b-]
*d:	*d:	*d:	*d:	*d:	*d:	*d:	*d:
=1	=1	=1	=1	=1	=1	=1	=1
2F	2F	2d	2d	0r	0r	0r	0r
2C	2C	2c	2c	.	.	.	.
4D	4D	4d	4d	.	.	.	.
4D	4D	4d	4d	.	.	.	.
4D	4D	4d	4d	.	.	.	.
4D	4D	4d	4d	.	.	.	.
=2	=2	=2	=2	=2	=2	=2	=2
8FL	8FL	8fL	8fL	0r	0r	0r	0r
8EJ	8EJ	8eJ	8eJ	.	.	.	.
4D	4D	4d	4d	.	.	.	.
2D	2D	2d	2d	.	.	.	.
4C	4C	4c	4c	.	.	.	.
4D	4D	4d	4d	.	.	.	.
4E	4E	4e	4e	.	.	.	.
4D	4D	4d	4d	.	.	.	.
=3	=3	=3	=3	=3	=3	=3	=3
!!pagebreak:original
[0.D	[0.D	[0.d	[0.d	2r	2r	2r	2r
.	.	.	.	4d	4f	4a	4dd
.	.	.	.	4d	4f	4a	4dd
.	.	.	.	2A	2e	2g	2ee
.	.	.	.	4d	4f	4a	4dd
.	.	.	.	4d	4f	4a	4dd
.	.	.	.	4d	4f	2a	4dd
.	.	.	.	4c	4e	.	4cc
.	.	.	.	4B-	4d	4g	4b-
.	.	.	.	4A	4c	8fL	4cc
.	.	.	.	.	.	8gJ	.
=4	=4	=4	=4	=4	=4	=4	=4
0D_	0D_	0d_	0d_	2d	2f	2a	2dd
.	.	.	.	4d	4f	4a	4dd
.	.	.	.	4d	4f	4a	4dd
.	.	.	.	4d	4f	4a	4dd
.	.	.	.	4c	4e	4g	4ee
.	.	.	.	2d	2f	2a	2dd
2D_	2D_	2d_	2d_	4d	4f	4a	4dd
.	.	.	.	4d	4f	4a	4dd
=5	=5	=5	=5	=5	=5	=5	=5
!!pagebreak:original
0D_	0D_	0d_	0d_	2c	2g	2cc	2ee
.	.	.	.	8B-L	4f	4b-	4dd
.	.	.	.	8cJ	.	.	.
.	.	.	.	[4d	[4f	[4a	[4dd
.	.	.	.	4d]	4f]	4a]	4dd]
.	.	.	.	4d	4f	4a	4dd
.	.	.	.	2c	2g	2cc	2ee
2D]	2D]	2d]	2d]	8B-L	4f	4b-	4dd
.	.	.	.	8cJ	.	.	.
.	.	.	.	[4d	[4f	[4a	[4dd
=6	=6	=6	=6	=6	=6	=6	=6
2r	2r	2r	2r	2d]	2f]	2a]	2dd]
4D	4D	4d	4d	1r	1r	1r	1r
4E	4E	4e	4e	.	.	.	.
2F	2F	2f	2f	.	.	.	.
4F	4F	4f	4f	2r	2r	2r	2r
4F	4F	4f	4f	.	.	.	.
=7	=7	=7	=7	=7	=7	=7	=7
4E	4E	4e	4e	1%3r	1%3r	1%3r	1%3r
4D	4D	4d	4d	.	.	.	.
4C	4C	4c	4c	.	.	.	.
4D	4D	4d	4d	.	.	.	.
4E	4E	4e	4e	.	.	.	.
8FL	8FL	8fL	8fL	.	.	.	.
8EJ	8EJ	8eJ	8eJ	.	.	.	.
4D	4D	4d	4d	.	.	.	.
4E	4E	4e	4e	.	.	.	.
2D	2D	2d	2d	.	.	.	.
8EL	8EL	8eL	8eL	.	.	.	.
8DJ	8DJ	8dJ	8dJ	.	.	.	.
4C	4C	4c	4c	.	.	.	.
=8	=8	=8	=8	=8	=8	=8	=8
!!pagebreak:original
[0C	[0C	[0c	[0c	2r	2r	2r	2r
.	.	.	.	4A	4d	4f	4dd
.	.	.	.	4c	4e	4g	4ee
.	.	.	.	4d	4f	4a	4ff
.	.	.	.	4e	4g	4a	4ee
.	.	.	.	4f	4a	4a	4dd
.	.	.	.	4e	4g	4a	4cc
=9	=9	=9	=9	=9	=9	=9	=9
0C_	0C_	0c_	0c_	4d	4f	4a	4dd
.	.	.	.	8cL	4f	4a	4dd
.	.	.	.	8BnJ	.	.	.
.	.	.	.	4A	4f	4a	4dd
.	.	.	.	4c	4e	4a	4cc
.	.	.	.	4d	2f	2a	4dd
.	.	.	.	8eL	.	.	8ccL
.	.	.	.	8dJ	.	.	8ddJ
.	.	.	.	4c	2g	4a	4ee
.	.	.	.	8dL	.	4b-	8ddL
.	.	.	.	8eJ	.	.	8eeJ
=10	=10	=10	=10	=10	=10	=10	=10
1.C_	1.C_	1.c_	1.c_	4.f	1a	1cc	4.ff
.	.	.	.	8g	.	.	8ee
.	.	.	.	4a	.	.	4ff
.	.	.	.	4g	.	.	4ee
.	.	.	.	8fL	8aL	2a	8ddL
.	.	.	.	8eJ	8gJ	.	8ccJ
.	.	.	.	4d	4f	.	4dd
2C]	2C]	2c]	2c]	2c	2g	2cc	2ee
2r;	2r;	2r;	2r;	2c;	2g;	2cc;	2ee;
=11	=11	=11	=11	=11	=11	=11	=11
!!pagebreak:original
2G	2G	2d	2g	2b-	2b-	2gg	2gg
2G	2G	2d	2g	2b-	2b-	2gg	2gg
4G	4G	4d	4g	4b-	4b-	4gg	4gg
2B-	2B-	2c	2e	2g	2cc	2ee	2ee
4G	4G	4.d	4g	4b-	4.dd	4gg	4gg
8B-L	8B-L	.	8dL	8aL	.	8ffL	8ffL
8cJ	8cJ	8e	8eJ	8gJ	8cc	8eeJ	8eeJ
4d	4d	4f	4f	4b-	4b-	4dd	4dd
=12	=12	=12	=12	=12	=12	=12	=12
2G	2G	2d	2g	2b-	2b-	2gg	2gg
4G	4G	4d	4g	4b-	4b-	4gg	4gg
4B-	4B-	4c	4e	4g	4cc	4ee	4ee
4G	4G	4d	4g	4b-	4b-	4gg	4gg
4A	4A	4d	4f	4a	4dd	4ff	4ff
4B-	4B-	4c	4e	4g	4cc	4ee	4ee
4A	4A	4c	4e	4a	4cc	4ee	4ee
4G	4G	4.d	4g	4b-	4.dd	4gg	4gg
8B-L	8B-L	.	8dL	8aL	.	8ffL	8ffL
8cJ	8cJ	8e	8eJ	8gJ	8cc	8eeJ	8eeJ
4d	4d	4f	4f	4b-	4b-	4dd	4dd
4c	4c	4e	4g	4b-	4b-	4ee	4ee
=13	=13	=13	=13	=13	=13	=13	=13
!!pagebreak:original
2F	2F	2c	2f	2a	1a	2ff	2ff
2C	2C	2A	2e	2g	.	2ee	2ee
2D	2D	2A	2d	2f	2a	2dd	2dd
2AA	2AA	2G	2c	2e	2a	2cc	2cc
=14	=14	=14	=14	=14	=14	=14	=14
2BB-	2BB-	2F	2d	2d	2f	2dd	2dd
4C	4E-X	4G	4c	8e-XL	8e-XL	8ccL	8ccL
.	.	.	.	8dJ	8dJ	8b-J	8b-J
4C	4E-	4G	4c	4e-	4e-	4cc	4cc
2GG	2D	2G	2B-	2d	2d	2dd	2dd
[2GG	[2D	[2G	[2B-	[2d	[2d	[2dd	[2dd
=15	=15	=15	=15	=15	=15	=15	=15
2GG]	2D]	2G]	2B-]	0d_	0d_	0dd_	0dd_
2r	2r	2r	2r	.	.	.	.
2r	2r	2r	2r	.	.	.	.
4D	4F	4A	4d	.	.	.	.
4D	4F	4A	4d	.	.	.	.
2AA	2E	2G	2e	0d_	0d_	0dd_	0dd_
2D	2F	2A	2d	.	.	.	.
4D	4F	2A	4d	.	.	.	.
4C	4E	.	4c	.	.	.	.
4BB-	4D	4G	4B-	.	.	.	.
4AA	4C	8FL	4c	.	.	.	.
.	.	8GJ	.	.	.	.	.
=16	=16	=16	=16	=16	=16	=16	=16
!!pagebreak:original
4D	4F	4A	4d	0d]	0d]	0dd_	0dd_
4D	4F	4A	4d	.	.	.	.
4D	4F	4A	4d	.	.	.	.
4C	4G	4B-	4e	.	.	.	.
2D	2F	2A	2d	.	.	.	.
4D	4F	4A	4d	.	.	.	.
4E	4G	4A	4c	.	.	.	.
=17	=17	=17	=17	=17	=17	=17	=17
2F	2A	[1A	2d	2d	2d	2dd]	2dd]
8EL	8GL	.	8cL	2c	2c	2cc	2cc
8DJ	8FJ	.	8dJ	.	.	.	.
4C	4E	.	4e	.	.	.	.
4D	4F	4A]	4f	2d	2d	2dd	2dd
4D	4F	4A	4f	.	.	.	.
8CL	2E	2A	8eL	2e	2e	2ee	2ee
8BB-J	.	.	8dJ	.	.	.	.
4AA	.	.	4c	.	.	.	.
=18	=18	=18	=18	=18	=18	=18	=18
2BB-	2D	2G	2d	2d	2d	2dd	2dd
8CL	4E	4G	4c	2c	2c	2cc	2cc
8BB-J	.	.	.	.	.	.	.
4AA	4E	4A	4c	.	.	.	.
4GG	4D	4G	4d	2B-	2B-	2b-	2b-
8AAL	4D	4G	8cL	.	.	.	.
8BB-J	.	.	8dJ	.	.	.	.
4C	4G	4c	4e	[2c	[2c	[2cc	[2cc
4AA	4F	4c	4d	.	.	.	.
4C	4G	2.c	4e	1c]	1c]	1cc]	1cc]
8AAL	8FL	.	8dL	.	.	.	.
8GGJ	8GJ	.	8eJ	.	.	.	.
4FF	4A	.	4f	.	.	.	.
4C	4G	4c	4e	.	.	.	.
=19	=19	=19	=19	=19	=19	=19	=19
!!pagebreak:original
[0D	2F	2A	[0d	2d	2d	2dd	2dd
.	1r	1r	.	4A	4d	4f	4dd
.	.	.	.	4c	4e	4g	4ee
.	.	.	.	4d	4f	2a	4ff
.	.	.	.	4e	4g	.	4ee
.	2r	2r	.	4f	4a	4a	4dd
.	.	.	.	4e	4g	4a	4cc
=20	=20	=20	=20	=20	=20	=20	=20
0D_	0r	0r	0d_	2d	2f	2a	2dd
.	.	.	.	4f	4a	4a	4dd
.	.	.	.	4e	4g	4a	4cc
.	.	.	.	4d	4f	4a	4dd
.	.	.	.	8cL	4f	4a	4dd
.	.	.	.	8BnJ	.	.	.
.	.	.	.	4A	4f	4a	4dd
.	.	.	.	4c	4e	4a	4cc
=21	=21	=21	=21	=21	=21	=21	=21
1D]	1r	1r	1d_	2d	2f	2a	2dd
.	.	.	.	8eL	2g	2a	8ccL
.	.	.	.	8dJ	.	.	8ddJ
.	.	.	.	4c	.	.	4ee
1D;	1r;	1r;	1d;]	1d;	1f;	1a;	1dd;
=22	=22	=22	=22	=22	=22	=22	=22
!!pagebreak:original
2F	2F	2d	2d	2d	2d	2b-	2b-
2BB-	2D	2G	2G	2d	2d	2g	2g
2D	2A	2d	2d	2d	2a	2a	2a
4.G	4.G	2d	2d	2g	2g	4b-	4b-
.	.	.	.	.	.	8aL	8aL
8F	8F	.	.	.	.	8b-J	8b-J
4E	4E	4c	4c	4g	4g	4cc	4cc
4C	4C	4c	4c	4e	4e	4b-	4b-
2F	2F	2c	2c	2f	2f	2a	2a
=23	=23	=23	=23	=23	=23	=23	=23
2.B-	2.B-	2.d	2.f	2.f	2.b-	2.b-	2.dd
4B-	4B-	4B-	4d	4f	4f	4b-	4dd
4B-	4B-	4B-	4d	4f	4f	4b-	4dd
4F	4F	4c	4c	4f	4f	4a	4cc
=24	=24	=24	=24	=24	=24	=24	=24
4B-	4B-	1B-	1d	4f	4f	4b-	4dd
4BB-	4F	.	.	4d	4d	4f	4f
4D	4D	.	.	4B-	4B-	4g	4g
4F	4F	.	.	4d	4d	4b-	4b-
4B-	4B-	2d	2f	4f	4f	2dd	4dd
4A	4A	.	.	4a	4a	.	4ff
=25	=25	=25	=25	=25	=25	=25	=25
!!pagebreak:original
2d	2d	1.f	1.a	2dd	2dd	1.ff	1.aa
2c	2c	.	.	2cc	2cc	.	.
4d	4d	.	.	4dd	4dd	.	.
4d	4d	.	.	4dd	4dd	.	.
4d	4d	2d	2f	4dd	4dd	2dd	2ff
4d	4d	.	.	4dd	4dd	.	.
=26	=26	=26	=26	=26	=26	=26	=26
8fL	8fL	2f	2a	8ffL	8ffL	2ff	2aa
8eJ	8eJ	.	.	8eeJ	8eeJ	.	.
4d	4d	.	.	4dd	4dd	.	.
8cL	8cL	2e	2g	8ccL	8ccL	2ee	2gg
8dJ	8dJ	.	.	8ddJ	8ddJ	.	.
4e	4e	.	.	4ee	4ee	.	.
=27	=27	=27	=27	=27	=27	=27	=27
1d	1d	4f	4a	1dd	1dd	4ff	4aa
.	.	4e	4g	.	.	4ee	4gg
.	.	4d	4f	.	.	4dd	4ff
.	.	4e	4g	.	.	4ee	4gg
2r	2r	4d	4f	2r	2r	4dd	4ff
.	.	4d	4f	.	.	4dd	4ff
2A	2A	4A	4e	2a	2a	4a	4ee
.	.	8dL	8fL	.	.	8ddL	8ffL
.	.	8eJ	8gJ	.	.	8eeJ	8ggJ
=28	=28	=28	=28	=28	=28	=28	=28
!!pagebreak:original
2B-	2B-	1d	1f	2b-	2b-	1dd	1ff
4BB-	4BB-	.	.	4B-	4B-	.	.
4BB-	4BB-	.	.	4B-	4B-	.	.
2BB-	2BB-	4r	4r	2B-	2B-	4r	4r
.	.	8dL	8fL	.	.	8ddL	8ffL
.	.	8cJ	8eJ	.	.	8ccJ	8eeJ
8GL	8GL	[2G	[2d	8gL	8gL	[2g	[2dd
8AJ	8AJ	.	.	8aJ	8aJ	.	.
4B-	4B-	.	.	4b-	4b-	.	.
=29	=29	=29	=29	=29	=29	=29	=29
[0B-	[0B-	4G]	4d]	[1b-	[1b-	4g]	4dd]
.	.	4E	4c	.	.	4e	4cc
.	.	4G	4d	.	.	4g	4dd
.	.	4c	4e	.	.	4cc	4ee
.	.	2G	2d	1b-_	1b-_	2g	2dd
.	.	8GL	8dL	.	.	8gL	8ddL
.	.	8AJ	8cJ	.	.	8aJ	8ccJ
.	.	4B-	4B-	.	.	4b-	4b-
=30	=30	=30	=30	=30	=30	=30	=30
1B-_	1B-;_	[1G;	[1B-;	1b-;]	1b-;]	[1b-;	[1b-;
2B-]	2B-]	2G]	2B-]	[1B-	[1B-	1b-_	1b-_
2r	2r	2r	2r	.	.	.	.
=31	=31	=31	=31	=31	=31	=31	=31
!!pagebreak:original
2GG	2D	2G	2d	0B-_	0B-_	0b-_	0b-_
4C	4E	4G	4c	.	.	.	.
4GG	4D	4G	4d	.	.	.	.
2BB-	2D	2G	2d	.	.	.	.
8DL	8FL	8dL	8fL	.	.	.	.
8CJ	8EJ	8cJ	8eJ	.	.	.	.
4GG	4D	4G	4d	.	.	.	.
=32	=32	=32	=32	=32	=32	=32	=32
1GG	1D	[1G	1d	1B-]	1B-]	1b-]	1b-]
1AA	4E	1G]	4c	1c	1c	1cc	1cc
.	4F	.	4d	.	.	.	.
.	2G	.	2e	.	.	.	.
=33	=33	=33	=33	=33	=33	=33	=33
[0DD [0AA	[0D	[0A	[0d	2d	2f	2a	2dd
.	.	.	.	4A	4e	4a	4cc
.	.	.	.	4d	4f	4a	4dd
.	.	.	.	2d	2f	2a	2dd
.	.	.	.	8eL	4e	4a	8ccL
.	.	.	.	8dJ	.	.	8ddJ
.	.	.	.	4c	4e	4a	4ee
=34	=34	=34	=34	=34	=34	=34	=34
0DD;] 0AA]	0D;]	0A;]	0d;]	0d;	0f;	0a;	0dd;
==	==	==	==	==	==	==	==
*-	*-	*-	*-	*-	*-	*-	*-
